Granit/build/img/icons/logo.svg

<svg xmlns="http://www.w3.org/2000/svg" width="38" height="40"><path fill-rule="evenodd" fill="#292929" d="M36.657 34.401h1.12c.123 0 .223.102.223.228v1.144c0 .126-.1.228-.223.228H25.692a.226.226 0 01-.223-.228v-1.144c0-.126.1-.228.223-.228h1.12a.226.226 0 00.224-.228V32.23c0-.126-.1-.228-.224-.228h-1.12a.226.226 0 01-.223-.228v-1.143c0-.126.1-.229.223-.229h12.085c.123 0 .223.103.223.229v1.143c0 .126-.1.228-.223.228h-1.12a.226.226 0 00-.223.228v1.943c0 .126.1.228.223.228zm.574-4.798h-.515a.218.218 0 01-.146-.056l-3.6-3.167a.218.218 0 00-.216-.044 2.84 2.84 0 01-.948.168c-.317 0-.632-.076-.922-.214a.219.219 0 00-.235.029l-3.905 3.233a.22.22 0 01-.141.051l-.454-.005c-.235-.002-.338-.304-.156-.455l3.982-3.296a.228.228 0 00.045-.303c-.248-.37-.406-.841-.406-1.422 0-.442.351-.8.783-.8.432 0 .783.358.783.8 0 .11.011.205.031.286.039.162.23.226.357.121l.002-.002a.386.386 0 01.502.008l.172.151a.22.22 0 00.282.009c.172-.138.289-.357.289-.707 0-.723-.702-.898-.834-.923a.798.798 0 01-.654-.79v-2.042c0-.125-.1-.228-.223-.228h-.463a.224.224 0 01-.219-.183l-1.006-5.142a.226.226 0 01.219-.273h.686a.226.226 0 00.223-.228V9.535c0-.238-.313-.317-.421-.105l-8.952 17.594a.235.235 0 00-.025.105v.646c0 .126-.1.228-.223.228h-2.686a.226.226 0 00-.224.228v1.144a.225.225 0 01-.223.228H6.489a.226.226 0 01-.223-.228v-1.144c0-.126-.1-.228-.223-.228H1.79a.226.226 0 01-.223-.228v-14.74c0-.126.1-.227.223-.227h11.301c.123 0 .223.101.223.227v7.428l-.886 2.434a.228.228 0 00.21.308h1.243c.072 0 .14-.036.182-.096L30.258.066a.22.22 0 01.297-.062l3.246 2a.23.23 0 01.079.308l-.957 1.713a.23.23 0 00-.029.112v10.042c0 .126.1.228.223.228h.676c.135 0 .24.123.221.26L33.3 19.81a.225.225 0 01-.221.195h-.185v1.549c0 .086.046.164.121.203.67.349 1.367 1.041 1.367 2.23 0 .741-.248 1.307-.626 1.713a.231.231 0 00.016.33l3.605 3.172c.157.138.061.401-.146.401zM10.182 16.235c0-.126-.1-.229-.224-.229H4.923a.227.227 0 00-.224.229v4.342c0 .126.1.228.224.228h5.035a.226.226 0 00.224-.228v-4.342zm7.608 3.882l-1.514 2.108a.231.231 0 00.069.332l3.374 1.987c.189.112.406-.091.314-.293l-1.861-4.096a.22.22 0 00-.382-.038zm1.883-1.152l1.545 3.763a.221.221 0 00.4.024l1.042-1.877a.232.232 0 00-.065-.298l-2.586-1.886c-.183-.133-.422.062-.336.274zm1.718-3.829l-1.302 1.83-.01.014 2.614 1.737c.182.121.408-.068.33-.274l-1.243-3.256a.222.222 0 00-.389-.051zm1.608-.89l1.188 3.25c.068.185.319.2.408.024l.898-1.79a.232.232 0 00-.072-.292l-2.087-1.46c-.179-.125-.411.06-.335.268zm2.43-4.248a.221.221 0 00-.402-.082l-1.259 1.874a.232.232 0 00.064.321l1.892 1.237c.167.109.379-.041.339-.239l-.634-3.111zm.976-1.336l.649 3.012a.222.222 0 00.414.059l1.008-1.912a.231.231 0 00-.075-.299l-1.656-1.1c-.167-.111-.382.041-.34.24zm2.533-4.238a.222.222 0 00-.412-.065l-1.109 1.965a.232.232 0 00.073.306l1.79 1.177c.168.111.382-.042.339-.241l-.681-3.142zm2.89-.905l-1.497-1.005c-.165-.111-.379.035-.342.233l.537 2.868c.04.211.319.254.417.063l.96-1.863a.229.229 0 00-.075-.296zm.283 2.983c0-.238-.312-.317-.421-.107l-.337.649a.23.23 0 00-.026.106v7.029c0 .126.1.228.224.228h.336a.226.226 0 00.224-.228V6.502zm-12.14 24.7c2.326 0 3.525 1.125 3.525 2.799v3.375c0 1.749-1.151 2.624-3.525 2.624H2.742C1.012 40 0 38.825 0 36.601v-2.372c0-1.671 1.328-3.027 2.965-3.027h17.006zM3.133 36.573c0 .126.1.228.223.228H20.14a.226.226 0 00.223-.228v-1.944c0-.126-.1-.228-.223-.228H3.356a.226.226 0 00-.223.228v1.944z"/></svg>

<svg 
 xmlns="http://www.w3.org/2000/svg"
 xmlns:xlink="http://www.w3.org/1999/xlink"
 width="38px" height="40px">
<path fill-rule="evenodd"  fill="rgb(41, 41, 41)"
 d="M36.657,34.401 L37.217,34.401 L37.777,34.401 C37.900,34.401 38.000,34.503 38.000,34.629 L38.000,35.773 C38.000,35.899 37.900,36.001 37.777,36.001 L25.692,36.001 C25.569,36.001 25.469,35.899 25.469,35.773 L25.469,34.629 C25.469,34.503 25.569,34.401 25.692,34.401 L26.812,34.401 C26.936,34.401 27.036,34.299 27.036,34.173 L27.036,32.802 L27.036,32.230 C27.036,32.104 26.936,32.002 26.812,32.002 L25.692,32.002 C25.569,32.002 25.469,31.900 25.469,31.774 L25.469,30.631 C25.469,30.505 25.569,30.402 25.692,30.402 L37.777,30.402 C37.900,30.402 38.000,30.505 38.000,30.631 L38.000,31.774 C38.000,31.900 37.900,32.002 37.777,32.002 L36.657,32.002 C36.534,32.002 36.434,32.104 36.434,32.230 L36.434,34.173 C36.434,34.299 36.534,34.401 36.657,34.401 ZM37.231,29.603 L36.716,29.603 C36.662,29.603 36.610,29.583 36.570,29.547 L32.970,26.380 C32.911,26.328 32.829,26.310 32.754,26.336 C32.448,26.445 32.125,26.504 31.806,26.504 C31.489,26.504 31.174,26.428 30.884,26.290 C30.806,26.253 30.715,26.264 30.649,26.319 L26.744,29.552 C26.704,29.585 26.655,29.603 26.603,29.603 L26.149,29.598 C25.914,29.596 25.811,29.294 25.993,29.143 L29.975,25.847 C30.065,25.773 30.086,25.641 30.020,25.544 C29.772,25.174 29.614,24.703 29.614,24.122 C29.614,23.680 29.965,23.322 30.397,23.322 C30.829,23.322 31.180,23.680 31.180,24.122 C31.180,24.232 31.191,24.327 31.211,24.408 C31.250,24.570 31.441,24.634 31.568,24.529 L31.570,24.527 C31.717,24.407 31.929,24.408 32.072,24.535 L32.244,24.686 C32.324,24.757 32.443,24.761 32.526,24.695 C32.698,24.557 32.815,24.338 32.815,23.988 C32.815,23.265 32.113,23.090 31.981,23.065 C31.603,22.998 31.327,22.666 31.327,22.275 L31.327,20.233 C31.327,20.108 31.227,20.005 31.104,20.005 L30.779,20.005 L30.641,20.005 C30.535,20.005 30.443,19.929 30.422,19.822 L29.416,14.680 C29.388,14.538 29.494,14.407 29.635,14.407 L30.153,14.407 L30.321,14.407 C30.444,14.407 30.544,14.305 30.544,14.179 L30.544,9.535 C30.544,9.297 30.231,9.218 30.123,9.430 L21.171,27.024 C21.155,27.056 21.146,27.092 21.146,27.129 L21.146,27.200 L21.146,27.441 L21.146,27.775 C21.146,27.901 21.046,28.003 20.923,28.003 L18.237,28.003 C18.113,28.003 18.013,28.105 18.013,28.231 L18.013,29.375 C18.013,29.501 17.914,29.603 17.790,29.603 L7.049,29.603 L6.489,29.603 C6.366,29.603 6.266,29.501 6.266,29.375 L6.266,28.231 C6.266,28.105 6.166,28.003 6.043,28.003 L2.350,28.003 L1.790,28.003 C1.667,28.003 1.567,27.901 1.567,27.775 L1.567,13.035 C1.567,12.909 1.667,12.808 1.790,12.808 L13.091,12.808 C13.214,12.808 13.314,12.909 13.314,13.035 L13.314,13.607 L13.314,20.462 L13.314,20.463 L12.428,22.897 C12.374,23.046 12.482,23.205 12.638,23.205 L13.881,23.205 C13.953,23.205 14.021,23.169 14.063,23.109 L30.258,0.066 C30.326,-0.031 30.455,-0.058 30.555,0.004 L33.801,2.004 C33.905,2.067 33.940,2.204 33.880,2.312 L32.923,4.025 C32.904,4.059 32.894,4.098 32.894,4.137 L32.894,14.179 C32.894,14.305 32.994,14.407 33.117,14.407 L33.793,14.407 C33.928,14.407 34.033,14.530 34.014,14.667 L33.300,19.810 C33.284,19.922 33.190,20.005 33.079,20.005 L32.933,20.005 L32.894,20.005 L32.894,21.554 C32.894,21.640 32.940,21.718 33.015,21.757 C33.685,22.106 34.382,22.798 34.382,23.987 C34.382,24.728 34.134,25.294 33.756,25.700 C33.668,25.794 33.675,25.945 33.772,26.030 L37.377,29.202 C37.534,29.340 37.438,29.603 37.231,29.603 ZM10.182,16.235 C10.182,16.109 10.082,16.006 9.958,16.006 L4.923,16.006 C4.799,16.006 4.699,16.109 4.699,16.235 L4.699,20.577 C4.699,20.703 4.799,20.805 4.923,20.805 L9.958,20.805 C10.082,20.805 10.182,20.703 10.182,20.577 L10.182,16.235 ZM17.790,20.117 L16.276,22.225 C16.198,22.334 16.230,22.489 16.345,22.557 L19.719,24.544 C19.908,24.656 20.125,24.453 20.033,24.251 L18.172,20.155 C18.101,19.998 17.890,19.977 17.790,20.117 ZM19.673,18.965 L21.218,22.728 C21.290,22.903 21.526,22.917 21.618,22.752 L22.660,20.875 C22.716,20.774 22.688,20.645 22.595,20.577 L20.009,18.691 C19.826,18.558 19.587,18.753 19.673,18.965 ZM21.391,15.136 L20.089,16.966 L20.079,16.980 L22.693,18.717 C22.875,18.838 23.101,18.649 23.023,18.443 L21.780,15.187 C21.716,15.020 21.495,14.990 21.391,15.136 ZM22.999,14.246 L24.187,17.496 C24.255,17.681 24.506,17.696 24.595,17.520 L25.493,15.730 C25.544,15.628 25.513,15.503 25.421,15.438 L23.334,13.978 C23.155,13.853 22.923,14.038 22.999,14.246 ZM25.429,9.998 C25.389,9.802 25.138,9.750 25.027,9.916 L23.768,11.790 C23.697,11.896 23.726,12.041 23.832,12.111 L25.724,13.348 C25.891,13.457 26.103,13.307 26.063,13.109 L25.429,9.998 ZM26.405,8.662 L27.054,11.674 C27.098,11.880 27.370,11.919 27.468,11.733 L28.476,9.821 C28.531,9.717 28.498,9.587 28.401,9.522 L26.745,8.422 C26.578,8.311 26.363,8.463 26.405,8.662 ZM28.938,4.424 C28.894,4.221 28.628,4.179 28.526,4.359 L27.417,6.324 C27.358,6.430 27.390,6.564 27.490,6.630 L29.280,7.807 C29.448,7.918 29.662,7.765 29.619,7.566 L28.938,4.424 ZM31.828,3.519 L30.331,2.514 C30.166,2.403 29.952,2.549 29.989,2.747 L30.526,5.615 C30.566,5.826 30.845,5.869 30.943,5.678 L31.903,3.815 C31.957,3.712 31.925,3.583 31.828,3.519 ZM32.111,6.502 C32.111,6.264 31.799,6.185 31.690,6.395 L31.353,7.044 C31.336,7.077 31.327,7.113 31.327,7.150 L31.327,14.179 C31.327,14.305 31.427,14.407 31.551,14.407 L31.719,14.407 L31.887,14.407 C32.011,14.407 32.111,14.305 32.111,14.179 L32.111,6.502 ZM19.971,31.202 C22.297,31.202 23.496,32.327 23.496,34.001 L23.496,37.376 C23.496,39.125 22.345,40.000 19.971,40.000 L2.742,40.000 C1.012,40.000 0.000,38.825 0.000,36.601 L0.000,34.229 C0.000,32.558 1.328,31.202 2.965,31.202 L19.971,31.202 ZM3.133,36.573 C3.133,36.699 3.233,36.801 3.356,36.801 L20.140,36.801 C20.263,36.801 20.363,36.699 20.363,36.573 L20.363,34.629 C20.363,34.503 20.263,34.401 20.140,34.401 L3.356,34.401 C3.233,34.401 3.133,34.503 3.133,34.629 L3.133,36.573 Z"/>
</svg>
